packages/bezier-icons/icons/hourglass-2.svg

<svg width="24" height="24" viewBox="0 0 24 24" fill="none" xmlns="http://www.w3.org/2000/svg">
<path fill-rule="evenodd" clip-rule="evenodd" d="M17.0002 6.5528C17.0002 6.9338 16.8552 7.3068 16.5822 7.6308L13.6872 11.0698C13.2332 11.6088 13.2332 12.3918 13.6872 12.9318L16.5832 16.3688C16.8552 16.6938 17.0002 17.0658 17.0002 17.4478V19.9998H7.00018V17.4478C7.00018 17.0668 7.14518 16.6938 7.41818 16.3688L10.3132 12.9308C10.7672 12.3918 10.7672 11.6088 10.3132 11.0688L7.41818 7.6308C7.14518 7.3068 7.00018 6.9338 7.00018 6.5518V3.9998H17.0002V6.5528ZM19.0002 6.5528V3.9998C19.0002 2.8978 18.1032 1.9998 17.0002 1.9998H7.00018C5.89718 1.9998 5.00018 2.8978 5.00018 3.9998V6.5518C5.00018 7.4108 5.30718 8.2298 5.88818 8.9198L8.48218 11.9998L5.88918 15.0798C5.30718 15.7708 5.00018 16.5888 5.00018 17.4478V19.9998C5.00018 21.1028 5.89718 21.9998 7.00018 21.9998H17.0002C18.1032 21.9998 19.0002 21.1028 19.0002 19.9998V17.4478C19.0002 16.5998 18.6842 15.7588 18.1122 15.0798L15.5182 11.9998L18.1112 8.9198C18.6932 8.2298 19.0002 7.4108 19.0002 6.5528ZM16.2272 6.5H15.1522H8.84719H7.77219L8.46519 7.322L11.2352 10.611C11.4252 10.838 11.7042 10.967 12.0002 10.967C12.2952 10.967 12.5742 10.838 12.7652 10.611L15.5352 7.322L16.2272 6.5ZM10.5692 15.3895C10.9912 15.0945 11.4852 14.9395 12.0002 14.9395C12.5142 14.9395 13.0092 15.0945 13.4312 15.3895C15.7198 16.9895 15.9696 17.1641 15.9968 17.3684C16.0002 17.3934 16.0002 17.4189 16.0002 17.4475V18.5005V19.0005H15.5002H8.50018H8.00018V18.5005V17.4475C8.00018 17.4189 8.00018 17.3934 8.00352 17.3684C8.03078 17.1641 8.28054 16.9895 10.5692 15.3895Z" fill="#313234"/>
</svg>

<svg xmlns="http://www.w3.org/2000/svg" width="24" height="24" fill="none" viewBox="0 0 24 24"><path fill="#313234" fill-rule="evenodd" d="M17 6.553c0 .38-.145.754-.418 1.078l-2.895 3.439a1.44 1.44 0 0 0 0 1.862l2.896 3.437c.272.325.417.697.417 1.079V20H7v-2.552c0-.381.145-.754.418-1.08l2.895-3.437a1.44 1.44 0 0 0 0-1.862L7.418 7.63C7.145 7.307 7 6.934 7 6.55V4h10zm2 0V4c0-1.102-.897-2-2-2H7c-1.103 0-2 .898-2 2v2.552c0 .859.307 1.678.888 2.368L8.482 12 5.89 15.08C5.307 15.77 5 16.589 5 17.448V20c0 1.103.897 2 2 2h10c1.103 0 2-.897 2-2v-2.552c0-.848-.316-1.69-.888-2.368L15.518 12l2.593-3.08c.582-.69.89-1.51.89-2.367M16.227 6.5H7.772l.693.822 2.77 3.289a.997.997 0 0 0 1.53 0l2.77-3.289zm-5.658 8.89c.422-.296.916-.45 1.431-.45.514 0 1.01.155 1.431.45 2.289 1.6 2.539 1.774 2.566 1.978q.004.036.003.08V19H8v-1.552q-.001-.044.004-.08c.027-.204.277-.378 2.565-1.978" clip-rule="evenodd"/></svg>
